X: 250
T: 251. Ich bin ja, Herr, in deiner Macht
N: Derived from chor251.krn
C: Johann Sebastian Bach
%%abc-version 2.0
%%abcx-abcm2ps-target-version 5.9.1 (29 Sep 2008)
%%abc-creator hum2abc beta
%%abcx-conversion-date 2019/03/11 17:28:19
%%abc-edited-by Craig Stuart Sapp
%%humdrum-veritas 1300142721
%%humdrum-veritas-data 3284706262
%%
%%barnumbers 0
L: 1/4
M: C
%%staves [1 2 3 4]
V: 1 clef=treble
V: 2 clef=treble
V: 3 clef=treble-8
V: 4 clef=bass
K: Bb
[V:1] G [I:setbarnb 1]| 
[V:2] D | 
[V:3] B | 
[V:4] G, | 
[V:1] AA/B//c// B/G/d- | 
[V:2] EDD3/D/ | 
[V:3] c/B/AG3/A/ | 
[V:4] G,^F,G,3/=F,/ | 
[V:1] d/c//B// A/G/!fermata!^FA | 
[V:2] G^F/G/!fermata!DF | 
[V:3] Bc/B/!fermata!Ad | 
[V:4] E,/D,/ E,/C,/!fermata!D,D, | 
[V:1] Bc/d//e// d/B/f- | 
[V:2] G=FF3/F/ | 
[V:3] dcB3/c/ | 
[V:4] G,A,B,3/A,/ | 
[V:1] f/=e//d// c/B/!fermata!Ad | 
[V:2] Bc/=E/!fermata!FF | 
[V:3] dG/c/!fermata!cB | 
[V:4] G,/F,/ =E,/C,/!fermata!F,B, | 
[V:1] ^cd=e/f//g// f/e/ | 
[V:2] GF=ED | 
[V:3] BAAA/d/ | 
[V:4] =E,F,^C,D, | 
[V:1] =e2!fermata!d :|]  
[V:2] =E/F/G!fermata!^F :|]  
[V:3] d/^c//=B//^c!fermata!A :|]  
[V:4] A,A,,!fermata!D, :|]  
[V:1] d [I:setbarnb 7]| 
[V:2] A | 
[V:3] d | 
[V:4] ^F, | 
[V:1] _B/A/ =B/d/ g/e/c- | 
[V:2] GGG3/E/ | 
[V:3] ddc3/c/ | 
[V:4] G,=F,E,3/_A,/ | 
[V:1] c/f/ e/d/e!fermata!A | 
[V:2] _AGG!fermata!^F | 
[V:3] c=Bc!fermata!d | 
[V:4] F,/D,/G,C,!fermata!C | 
[V:1] dGc/d//e// d/c/ | 
[V:2] G/=F/=E^F/G/A | 
[V:3] dcc/B/ A/d/ | 
[V:4] _B,/A,/ B,/C/ A,/G,/^F, | 
[V:1] BA/G/!fermata!G |]  
[V:2] A/G/^F!fermata!D |]  
[V:3] dc/B/!fermata!B |]  
[V:4] G,D,!fermata!G,, |]  



